X: 43
T:Newark March
% Nottingham Music Database
S:Pauline Wilson, via PR
M:4/4
L:1/4
K:D
FG |"D"A2 A3/2B/2|A^G Ad|"G"B2 B3/2c/2|"E"B^A Be|"A7"c2 c3/2B/2|Ag fe|
"D"dc df|"A7"A2 FG|"D"A2 A3/2B/2|A^G Ad|"G"B2 B3/2c/2|"E7"B^A Be|
"A7"c3/2d/2 cB|Ac ec|"D"d3/2e/2 "A7"dc|"D"d2 de|"F#"f2 F2|"Bm"Bc de|"F#"fe dc|
"Bm"B2 cd|"E"e2 E2|"A"AB cd|"E7"ed cB|"A7"AG FE|"D"A2 A3/2B/2|A^G Ad|
"F#"f3/2g/2 fe|"Bm"d2 fg|"D"a2 A2|"Em"gf ed|"A7"eA Bc|"D"d2 ||<end>
<start>
